svg/OSM-icons/shop #ac39ac °ffffff !label=enshops,deLäden/29090;shop=kitchen;!name=;[shop];!label=enkitchen,deKüchen.svg

<svg xmlns="http://www.w3.org/2000/svg" viewBox="0 0 580 580" enable-background="new 0 0 580 580"><path fill="#111" stroke="#eee" stroke-width="3.408" d="m66.28 1.768c-41.34 0-64.57 21.371-64.57 65.04v450.12c0 40.844 20.896 62.23 62.19 62.23h452.02c41.31 0 62.23-20.314 62.23-62.23v-450.12c0-42.602-20.923-65.04-63.52-65.04-.003 0-448.5-.143-448.35 0z"/><g fill="#fff"><path d="m441 250.54h-302c-8.284 0-15 7.421-15 16.575v265.21c0 9.154 6.716 16.575 15 16.575h302c8.284 0 15-7.421 15-16.575v-265.21c0-9.154-6.716-16.575-15-16.575m-48.01 24.2c7.87 0 14.25 6.379 14.25 14.249s-6.38 14.25-14.25 14.25c-7.869 0-14.249-6.38-14.249-14.25 0-7.869 6.38-14.249 14.249-14.249m-154.49 0c7.87 0 14.25 6.379 14.25 14.249s-6.379 14.25-14.25 14.25c-7.87 0-14.249-6.38-14.249-14.25 0-7.869 6.379-14.249 14.249-14.249m-44.15 0c7.869 0 14.25 6.379 14.25 14.249s-6.38 14.25-14.25 14.25-14.249-6.38-14.249-14.25c0-7.869 6.379-14.249 14.249-14.249m226.07 225.76c0 10.696-8.671 19.368-19.368 19.368h-222.09c-10.697 0-19.369-8.672-19.369-19.368v-147.2c0-10.696 8.672-19.368 19.369-19.368h222.09c10.697 0 19.368 8.672 19.368 19.368v147.2"/><path d="m261.05 245.29c0-6.186-5.01-11.199-11.199-11.199h-85.11c-6.186 0-11.2 5.01-11.2 11.199 0 6.187 5.01 11.2 11.2 11.2h85.11c6.185 0 11.199-5.01 11.199-11.2"/><path d="m426.45 245.29c0-6.186-5.01-11.199-11.199-11.199h-85.11c-6.187 0-11.201 5.01-11.201 11.199 0 6.187 5.02 11.2 11.201 11.2h85.1c6.187 0 11.201-5.01 11.201-11.2"/><path d="m235.31 5.516l-98.61 87.14h306.6l-94.1-87.14z"/><path d="m443.3 123.57c0 1.518-1.984 2.749-4.436 2.749h-297.73c-2.448 0-4.435-1.231-4.435-2.749v-11.607c0-1.518 1.985-2.749 4.435-2.749h297.73c2.45 0 4.436 1.231 4.436 2.749v11.607"/></g></svg>

<?xml version="1.0" encoding="utf-8"?>
<!-- Generator: Adobe Illustrator 15.0.0, SVG Export Plug-In . SVG Version: 6.00 Build 0)  -->
<!DOCTYPE svg PUBLIC "-//W3C//DTD SVG 1.1//EN" "http://www.w3.org/Graphics/SVG/1.1/DTD/svg11.dtd">
<svg version="1.1" id="Layer_1" xmlns="http://www.w3.org/2000/svg" xmlns:xlink="http://www.w3.org/1999/xlink" x="0px" y="0px"
	 width="580px" height="580px" viewBox="0 0 580 580" enable-background="new 0 0 580 580" xml:space="preserve">
<g id="Layer_2">
	<g id="g1327">
		<path id="path1329" fill="#111111" stroke="#EEEEEE" stroke-width="3.408" d="M66.275,1.768
			c-41.335,0-64.571,21.371-64.571,65.036v450.123c0,40.844,20.896,62.229,62.192,62.229h452.024
			c41.307,0,62.229-20.314,62.229-62.229V66.804c0-42.602-20.923-65.036-63.521-65.036C514.625,1.768,66.133,1.625,66.275,1.768z"/>
	</g>
</g>
<g id="svg2" sodipodi:version="0.32" inkscape:version="0.46" sodipodi:docname="amenity_atm.svg" sodipodi:docbase="s:\Data\FacilityIcons" xmlns:cc="http://creativecommons.org/ns#" xmlns:sodipodi="http://sodipodi.sourceforge.net/DTD/sodipodi-0.dtd" xmlns:svg="http://www.w3.org/2000/svg" xmlns:inkscape="http://www.inkscape.org/namespaces/inkscape" xmlns:rdf="http://www.w3.org/1999/02/22-rdf-syntax-ns#" xmlns:dc="http://purl.org/dc/elements/1.1/" inkscape:output_extension="org.inkscape.output.svg.inkscape" display="none">
	
		<sodipodi:namedview  id="base" inkscape:pageopacity="0.0" inkscape:window-y="0" inkscape:window-width="1280" inkscape:window-height="1005" inkscape:pageshadow="2" inkscape:current-layer="svg2" inkscape:window-x="0" showgrid="false" bordercolor="#666666" guidetolerance="10.0" inkscape:zoom="1.3034483" pagecolor="#ffffff" objecttolerance="10.0" borderopacity="1.0" inkscape:cx="285.84646" inkscape:cy="302.63451" gridtolerance="10.0">
		</sodipodi:namedview>
	<defs  display="inline">
		
		
			<inkscape:perspective  id="perspective2441" inkscape:persp3d-origin="290 : 193.33333 : 1" sodipodi:type="inkscape:persp3d" inkscape:vp_z="580 : 290 : 1" inkscape:vp_x="0 : 290 : 1" inkscape:vp_y="0 : 1000 : 0">
			</inkscape:perspective>
	</defs>
	
		<path id="rect3241" sodipodi:nodetypes="ccccccccc" display="inline" opacity="0.75" fill="#FFFFFF" stroke="#FFFFFF" stroke-width="35.845" stroke-linecap="round" stroke-linejoin="round" enable-background="new    " d="
		M103.979,82.413v62.924h112.402c7.778-20.622,12.716-34.171,13.042-36.066l190.991-1.647l14.589,37.714h69.612V82.413H103.979z"/>
	
		<path id="path2443" sodipodi:nodetypes="ccccccc" display="inline" fill="none" stroke="#FFFFFF" stroke-width="20" stroke-linejoin="round" d="
		M227.906,158.094l-40.375,0.375c-1.603,9.296-122.313,358.625-122.313,358.625l403.813-3.406l-15.594-40.313l-333.094,2.845
		C120.344,476.219,195.438,243.832,227.906,158.094z"/>
	
		<path id="path3243" sodipodi:nodetypes="ccccc" display="inline" fill="none" stroke="#FFFFFF" stroke-width="20" stroke-linejoin="round" d="
		M242.694,117.588c-1.604,9.296-122.338,358.618-122.338,358.618l403.838-3.411L401.652,116.069L242.694,117.588z"/>
	
		<path id="path3163" sodipodi:nodetypes="ccccc" display="inline" opacity="0.1" fill="#FFFFFF" stroke="#FFFFFF" stroke-width="20" stroke-linecap="round" stroke-linejoin="round" enable-background="new    " d="
		M242.694,117.588c-1.604,9.296-122.338,358.618-122.338,358.618l403.838-3.411L401.652,116.069L242.694,117.588z"/>
	
		<path id="path3165" sodipodi:nodetypes="ccccccc" display="inline" opacity="0.1" fill="#FFFFFF" stroke="#FFFFFF" stroke-width="20" stroke-linecap="round" stroke-linejoin="round" enable-background="new    " d="
		M227.906,158.094l-40.375,0.375c-1.603,9.296-122.313,358.625-122.313,358.625l403.813-3.406l-15.594-40.313l-333.094,2.845
		C120.344,476.219,195.438,243.832,227.906,158.094z"/>
	<g id="g4372" transform="translate(-130.0802,122.26983)" display="inline">
	</g>
	<g id="g4998" transform="translate(-133.14896,123.86039)" display="inline">
		<g id="g5004">
			<path id="text2413" fill="#FFFFFF" d="M465.402,153.84c0.229,0.098,1.086,0.291,2.572,0.581
				c23.435,3.872,41.037,10.938,52.811,21.199c11.772,10.261,17.66,23.716,17.66,40.364c0,17.036-6.459,31.798-19.376,44.285
				c-12.917,12.487-30.807,19.263-53.669,20.327v26.426h-18.347v-26.135c-23.32-2.228-41.209-8.641-53.669-19.238
				c-12.46-10.6-19.49-25.434-21.09-44.504l30.864-4.646c2.399,14.326,7.259,25.36,14.574,33.104s17.09,12.148,29.321,13.213V175.62
				c-23.205-4.26-40.581-11.374-52.126-21.344s-17.318-22.795-17.318-38.478c0-15.584,5.717-28.966,17.147-40.146
				s28.863-17.641,52.297-19.384V43.782h18.347v12.487c19.434,1.646,34.75,6.873,45.953,15.681
				c11.202,8.81,18.232,21.15,21.091,37.025l-32.063,3.92c-1.829-9.873-5.659-17.689-11.488-23.449
				c-5.83-5.759-13.66-9.462-23.491-11.107L465.402,153.84L465.402,153.84z M447.055,150.646V78.048
				c-12.46,1.84-22.006,6.074-28.635,12.705c-6.63,6.632-9.945,14.303-9.945,23.015c0,9.971,3.429,17.835,10.288,23.595
				C425.622,143.12,435.052,147.549,447.055,150.646L447.055,150.646z M465.402,258.817c12.003-1.549,21.892-5.977,29.664-13.285
				s11.659-16.527,11.659-27.66c0-9.775-2.942-17.641-8.83-23.594s-16.719-11.012-32.493-15.174V258.817z"/>
		</g>
		
			<path id="path4370" sodipodi:nodetypes="cc" fill="none" stroke="#FFFFFF" stroke-width="30" stroke-linecap="round" stroke-linejoin="round" d="
			M455.376,43.427V308.47"/>
	</g>
</g>
<g id="Layer_4">
	<path fill="#FFFFFF" d="M441,250.542H139c-8.284,0-15,7.421-15,16.575v265.207c0,9.154,6.716,16.575,15,16.575h302
		c8.284,0,15-7.421,15-16.575V267.117C456,257.963,449.284,250.542,441,250.542z M392.992,274.741c7.87,0,14.25,6.379,14.25,14.249
		s-6.38,14.25-14.25,14.25c-7.869,0-14.249-6.38-14.249-14.25C378.743,281.121,385.123,274.741,392.992,274.741z M238.5,274.741
		c7.87,0,14.25,6.379,14.25,14.249s-6.379,14.25-14.25,14.25c-7.87,0-14.249-6.38-14.249-14.25
		C224.251,281.121,230.63,274.741,238.5,274.741z M194.346,274.741c7.869,0,14.25,6.379,14.25,14.249s-6.38,14.25-14.25,14.25
		s-14.249-6.38-14.249-14.25C180.097,281.121,186.476,274.741,194.346,274.741z M420.414,500.5c0,10.696-8.671,19.368-19.368,19.368
		H178.954c-10.697,0-19.369-8.672-19.369-19.368V353.3c0-10.696,8.672-19.368,19.369-19.368h222.092
		c10.697,0,19.368,8.672,19.368,19.368V500.5z"/>
	<g>
		<path fill="#FFFFFF" d="M261.05,245.293c0-6.186-5.014-11.199-11.199-11.199h-85.105c-6.186,0-11.2,5.014-11.2,11.199l0,0
			c0,6.187,5.015,11.2,11.2,11.2h85.105C256.036,256.493,261.05,251.479,261.05,245.293L261.05,245.293z"/>
		<path fill="#FFFFFF" d="M426.455,245.293c0-6.186-5.014-11.199-11.199-11.199H330.15c-6.187,0-11.201,5.014-11.201,11.199l0,0
			c0,6.187,5.016,11.2,11.201,11.2h85.104C421.441,256.493,426.455,251.479,426.455,245.293L426.455,245.293z"/>
	</g>
	<polygon fill="#FFFFFF" points="235.31,5.516 136.7,92.658 443.301,92.658 349.198,5.516 	"/>
	<path fill="#FFFFFF" d="M443.301,123.569c0,1.518-1.984,2.749-4.436,2.749h-297.73c-2.448,0-4.435-1.231-4.435-2.749v-11.607
		c0-1.518,1.985-2.749,4.435-2.749h297.73c2.45,0,4.436,1.231,4.436,2.749V123.569z"/>
</g>
</svg>
